!!!COM: Anon.
!!!OTL: O que tens, o/ Juliana
!!!OTL: Romanceiro Folclorico do Brasil
!!!CNT: Brasil
!!!OCY: Brasil
!!!ODT: <1971///
!!!PSR: Irmaos Vitale
!!!PSP: Sao Paulo, Brasil
!!!PDT: 1949///
!!!PPE: Rossini Tavares de Lima
!!!PPG: page 17
!! Romance: Juliana E D. Jorge
!! Place: Muzambinho, Minas Gerais, Brasil
**kern
*clefG2
*k[b-e-a-]
*M3/4
*MM??
8.g
16g
=
4g
4f
8e-
8d
=
4g
4c
8cc
8dd-
=
4cc
4b-
8a-
8g
=
4cc
4a-
8cc
=
4dd
4cc
8b-
8a-
=
4cc
4g
8g
8a-
=
4g
8f
8f
8e-
8d
=
2c
==
*-
